packages/ui-icons/svg/Line/user.svg

<svg viewBox="0 0 1920 1920" version="1.1" xmlns="http://www.w3.org/2000/svg">
    <path d="M970.110588,1129.47953 C1165.16,1130.38306 1358.96706,1159.97365 1545.99765,1217.46071 C1634.65647,1244.67953 1694.17647,1324.52894 1694.17647,1416.23718 L1694.17647,1571.30541 C1560.90588,1666.28894 1305.20706,1807.01365 960.058824,1807.01365 C807.136471,1807.01365 511.682353,1775.95482 225.941176,1571.30541 L225.941176,1416.23718 C225.941176,1324.52894 285.687059,1244.56659 374.684706,1217.34776 C568.265882,1157.94071 768.510588,1130.15718 970.110588,1129.47953 Z M967.964706,112.896 C1152.28471,112.896 1309.27294,242.778353 1346.65647,420.208941 C1314.69412,438.731294 1281.60235,451.719529 1224.34118,451.719529 C1150.70353,451.719529 1117.27294,430.599529 1074.80706,403.945412 C1026.46824,373.451294 971.804706,338.778353 866.317647,338.778353 C760.04,338.778353 705.037647,373.564235 656.472941,404.171294 C628.124706,422.016 603.729412,437.376 568.604706,445.620706 C595.371765,257.799529 757.216471,112.896 952.152941,112.896 L967.964706,112.896 Z M1579.08941,1109.48894 C1472.81176,1076.84894 1364.27529,1053.47012 1254.60941,1037.88424 C1383.47529,947.305412 1468.29412,798.110118 1468.29412,629.037176 L1355.35294,629.037176 C1355.35294,842.721882 1181.53647,1016.42541 967.964706,1016.42541 L952.152941,1016.42541 C738.581176,1016.42541 564.764706,842.721882 564.764706,629.037176 L564.764706,561.046588 C634.901176,551.333647 677.931765,524.227765 716.783529,499.606588 C759.249412,472.839529 792.792941,451.719529 866.317647,451.719529 C939.051765,451.719529 972.369412,472.726588 1014.49647,499.380706 C1063.06118,529.987765 1118.06353,564.660706 1224.34118,564.660706 C1330.61882,564.660706 1385.84706,529.648941 1438.70353,496.105412 L1468.63294,477.131294 L1464.56706,441.780706 C1434.86353,189.921882 1221.29176,-0.0451764706 967.964706,-0.0451764706 L952.152941,-0.0451764706 C676.237647,-0.0451764706 451.823529,224.481882 451.823529,508.190118 L451.823529,629.037176 C451.823529,798.448941 536.868235,947.757176 665.96,1038.336 C556.407059,1053.58306 447.870588,1076.736 341.48,1109.376 C204.821176,1151.27718 113,1274.72188 113,1416.23718 L113,1628.22776 L135.588235,1645.16894 C454.421176,1884.26541 788.952941,1919.95482 960.058824,1919.95482 C1358.51529,1919.95482 1647.64471,1747.71953 1784.52941,1645.16894 L1807.11765,1628.22776 L1807.11765,1416.23718 C1807.11765,1274.60894 1715.40941,1151.39012 1579.08941,1109.48894 L1579.08941,1109.48894 Z" stroke="none" stroke-width="1" fill-rule="evenodd"/>
</svg>

<svg viewBox="0 0 1920 1920" version="1.1" xmlns="http://www.w3.org/2000/svg">
    <path d="M1694.176 1571.305c-133.27 94.984-388.969 235.709-734.117 235.709-152.923 0-448.377-31.06-734.118-235.709v-155.068c0-91.708 59.746-171.67 148.744-198.89 193.58-59.406 393.826-87.19 595.426-87.867 195.049.903 388.856 30.494 575.887 87.98 88.658 27.22 148.178 107.069 148.178 198.777v155.068zM952.153 112.896h15.812c184.32 0 341.308 129.882 378.691 307.313-31.962 18.522-65.054 31.51-122.315 31.51-73.637 0-107.068-21.12-149.534-47.774-48.339-30.494-103.002-65.167-208.49-65.167-106.277 0-161.28 34.786-209.844 65.393-28.348 17.845-52.744 33.205-87.868 41.45C595.372 257.8 757.216 112.896 952.153 112.896zm626.936 996.593c-106.277-32.64-214.814-56.019-324.48-71.605 128.866-90.579 213.685-239.774 213.685-408.847h-112.941c0 213.685-173.817 387.388-387.388 387.388h-15.812c-213.572 0-387.388-173.703-387.388-387.388v-67.99c70.136-9.713 113.167-36.82 152.019-61.44 42.465-26.767 76.009-47.887 149.534-47.887 72.734 0 106.051 21.007 148.178 47.66 48.565 30.608 103.568 65.28 209.845 65.28 106.278 0 161.506-35.011 214.363-68.555l29.929-18.974-4.066-35.35C1434.864 189.92 1221.292-.045 967.965-.045h-15.812c-275.915 0-500.33 224.527-500.33 508.235v120.847c0 169.412 85.045 318.72 214.137 409.299-109.553 15.247-218.09 38.4-324.48 71.04C204.821 1151.277 113 1274.722 113 1416.237v211.99l22.588 16.942c318.833 239.096 653.365 274.786 824.47 274.786 398.457 0 687.587-172.235 824.471-274.786l22.589-16.941v-211.99c0-141.63-91.709-264.848-228.029-306.75z" stroke="none" stroke-width="1" fill-rule="evenodd"/>
</svg>
